X: 42548
T: When Irish Eyes Are Smiling
R: waltz
M: 3/4
K: Dmajor
|A|"D"F2 F|E2 D|F A2-|A F D|"G"G2 B|d2 B|"D"A3-|A2 B/c/|
"G"d2 c|d2 c|"D"B A2|"B7"G2 F|"Em"B2 E|"E7"E2 F|"A"E3-|"A7"E2 A|
"D"F2 F|E2 D|F A2-|A F D|"G"G2 B|d2 B|"D"A3-|A B c|
"G"d2 c|"E7"e2 d|"D"f3|"B7"A ^G A|"E7"B c d|"A7"e2 d|"D"d3-|d2||

